;FLAVOR:Marlin
;TIME:10366
;Filament used: 8.71105m
;Layer height: 0.2
;MINX:81.49
;MINY:80.169
;MINZ:0.2
;MAXX:194.109
;MAXY:140.797
;MAXZ:42
;Generated with Cura_SteamEngine 4.9.0
M140 S110
M105
M190 S110
M104 S245
M105
M109 S245
M82 ;absolute extrusion mode
; Ender 3 Custom Start G-code
G92 E0 ; Reset Extruder
G28 ; Home all axes
G1 Z2.0 F3000 ; Move Z Axis up little to prevent scratching of Heat Bed
G29 ; NEW autolevels bed
G1 Z2.0 F3000 ; NEW Move Z Axis up little to prevent scratching of Heat Bed
G1 X0.1 Y20 Z0.3 F5000.0 ; Move to start position
G1 X0.1 Y200.0 Z0.3 F1500.0 E15 ; Draw the first line
G1 X0.4 Y200.0 Z0.3 F5000.0 ; Move to side a little
G1 X0.4 Y20 Z0.3 F1500.0 E30 ; Draw the second line
G92 E0 ; Reset Extruder
G1 Z2.0 F3000 ; Move Z Axis up little to prevent scratching of Heat Bed
G1 X5 Y20 Z0.3 F5000.0 ; Move over to prevent blob squish
G92 E0
G92 E0
G1 F1500 E-1
;LAYER_COUNT:210
;LAYER:0
M107
G0 F6000 X84.178 Y89.768 Z0.2
;TYPE:SKIRT
G1 F1500 E0
G1 F1200 X84.412 Y89.55 E0.01064
G1 X84.684 Y89.316 E0.02257
G1 X84.942 Y89.11 E0.03355
G1 X85.233 Y88.896 E0.04557
G1 X85.556 Y88.68 E0.05849
G1 X85.845 Y88.504 E0.06974
G1 X99.019 Y80.899 E0.57568
G1 X99.282 Y80.761 E0.58556
G1 X99.393 Y80.708 E0.58965
G1 X99.647 Y80.597 E0.59887
G1 X99.839 Y80.522 E0.60573
G1 X100.264 Y80.385 E0.62058
G1 X100.502 Y80.323 E0.62876
G1 X100.998 Y80.228 E0.64556
G1 X101.259 Y80.196 E0.6543
G1 X101.79 Y80.169 E0.67198
G1 X102.119 Y80.175 E0.68293
G1 X102.717 Y80.233 E0.70291
G1 X102.992 Y80.282 E0.7122
G1 X103.441 Y80.391 E0.72757
G1 X103.659 Y80.458 E0.73516
G1 X104.168 Y80.655 E0.75331
G1 X104.466 Y80.796 E0.76427
G1 X104.958 Y81.076 E0.7831
G1 X105.189 Y81.231 E0.79235
G1 X105.6 Y81.549 E0.80964
G1 X105.784 Y81.713 E0.81784
G1 X106.081 Y82.009 E0.83178
G1 X106.233 Y82.178 E0.83934
G1 X106.536 Y82.561 E0.85559
G1 X106.685 Y82.777 E0.86431
G1 X106.942 Y83.208 E0.881
G1 X107.068 Y83.455 E0.89023
G1 X107.27 Y83.929 E0.90736
G1 X107.357 Y84.178 E0.91614
G1 X107.484 Y84.628 E0.93169
G1 X107.535 Y84.864 E0.93972
G1 X107.613 Y85.428 E0.95866
G1 X107.635 Y85.777 E0.97029
G1 X107.643 Y86.016 E0.97824
G1 X107.644 Y97.236 E1.35142
G1 X134.71 Y97.237 E2.25164
G1 X135.26 Y97.277 E2.26998
G1 X135.798 Y97.396 E2.28831
G1 X136.313 Y97.592 E2.30663
G1 X136.794 Y97.86 E2.32495
G1 X137.232 Y98.194 E2.34327
G1 X137.616 Y98.589 E2.36159
G1 X137.94 Y99.035 E2.37993
G1 X138.128 Y99.395 E2.39343
G1 X138.441 Y99.091 E2.40795
G1 X138.887 Y98.767 E2.42628
G1 X139.375 Y98.512 E2.44459
G1 X139.895 Y98.329 E2.46293
G1 X140.436 Y98.224 E2.48126
G1 X140.889 Y98.197 E2.49635
G1 X167.956 Y98.196 E3.3966
G1 X167.959 Y86.804 E3.7755
G1 X167.986 Y86.352 E3.79056
G1 X168.013 Y86.127 E3.7981
G1 X168.099 Y85.658 E3.81396
G1 X168.167 Y85.386 E3.82329
G1 X168.318 Y84.916 E3.8397
G1 X168.407 Y84.69 E3.84778
G1 X168.598 Y84.279 E3.86286
G1 X168.715 Y84.062 E3.87106
G1 X168.989 Y83.627 E3.88816
G1 X169.153 Y83.402 E3.89742
G1 X169.447 Y83.047 E3.91275
G1 X169.602 Y82.881 E3.9203
G1 X169.936 Y82.563 E3.93564
G1 X170.11 Y82.417 E3.94319
G1 X170.456 Y82.159 E3.95755
G1 X170.66 Y82.024 E3.96569
G1 X171.064 Y81.791 E3.9812
G1 X171.281 Y81.683 E3.98926
G1 X171.732 Y81.494 E4.00552
G1 X171.998 Y81.402 E4.01489
G1 X172.516 Y81.263 E4.03272
G1 X172.789 Y81.21 E4.04197
G1 X173.308 Y81.146 E4.05937
G1 X173.585 Y81.131 E4.06859
G1 X174.096 Y81.137 E4.08559
G1 X174.356 Y81.158 E4.09427
G1 X174.876 Y81.237 E4.11176
G1 X175.15 Y81.298 E4.1211
G1 X175.647 Y81.445 E4.13833
G1 X175.892 Y81.536 E4.14703
G1 X176.314 Y81.723 E4.16238
G1 X176.548 Y81.844 E4.17114
G1 X176.703 Y81.928 E4.177
G1 X189.631 Y89.393 E4.67353
G1 X189.856 Y89.526 E4.68222
G1 X190.02 Y89.629 E4.68866
G1 X190.31 Y89.821 E4.70023
G1 X190.52 Y89.97 E4.70879
G1 X190.796 Y90.181 E4.72035
G1 X191.127 Y90.457 E4.73468
G1 X191.412 Y90.719 E4.74756
G1 X191.696 Y91.006 E4.76099
G1 X191.908 Y91.237 E4.77142
G1 X192.15 Y91.525 E4.78393
G1 X192.272 Y91.681 E4.79051
G1 X192.48 Y91.961 E4.80212
G1 X192.694 Y92.274 E4.81473
G1 X192.891 Y92.594 E4.82723
G1 X192.993 Y92.773 E4.83408
G1 X193.157 Y93.081 E4.84568
G1 X193.275 Y93.322 E4.85461
G1 X193.417 Y93.641 E4.86622
G1 X193.55 Y93.971 E4.87806
G1 X193.68 Y94.344 E4.89119
G1 X193.785 Y94.695 E4.90338
G1 X193.883 Y95.076 E4.91646
G1 X193.921 Y95.249 E4.92235
G1 X193.971 Y95.505 E4.93103
G1 X194.034 Y95.913 E4.94476
G1 X194.074 Y96.281 E4.95707
G1 X194.1 Y96.677 E4.97027
G1 X194.106 Y96.841 E4.97573
G1 X194.109 Y97.1 E4.98435
G1 X194.106 Y97.303 E4.9911
G1 X194.095 Y97.566 E4.99985
G1 X194.062 Y97.973 E5.01343
G1 X194.042 Y98.146 E5.01923
G1 X194.006 Y98.405 E5.02792
G1 X193.975 Y98.591 E5.0342
G1 X193.926 Y98.849 E5.04293
G1 X193.822 Y99.287 E5.0579
G1 X193.731 Y99.611 E5.0691
G1 X193.602 Y100.002 E5.08279
G1 X193.475 Y100.34 E5.0948
G1 X193.32 Y100.701 E5.10787
G1 X193.147 Y101.058 E5.12106
G1 X192.974 Y101.381 E5.13325
G1 X172.692 Y136.509 E6.48237
G1 X172.515 Y136.794 E6.49353
G1 X172.301 Y137.107 E6.50614
G1 X172.085 Y137.398 E6.51819
G1 X171.866 Y137.668 E6.52976
G1 X171.626 Y137.94 E6.54182
G1 X171.487 Y138.088 E6.54857
G1 X171.24 Y138.336 E6.56022
G1 X170.96 Y138.596 E6.57293
G1 X170.672 Y138.838 E6.58544
G1 X170.516 Y138.96 E6.59202
G1 X170.236 Y139.168 E6.60362
G1 X169.868 Y139.417 E6.6184
G1 X169.685 Y139.53 E6.62556
G1 X169.383 Y139.704 E6.63715
G1 X169.064 Y139.872 E6.64914
G1 X168.875 Y139.963 E6.65612
G1 X168.556 Y140.105 E6.66773
G1 X168.156 Y140.263 E6.68204
G1 X167.849 Y140.369 E6.69284
G1 X167.497 Y140.475 E6.70506
G1 X167.294 Y140.528 E6.71204
G1 X166.955 Y140.607 E6.72362
G1 X166.502 Y140.69 E6.73894
G1 X166.146 Y140.739 E6.75089
G1 X165.757 Y140.775 E6.76388
G1 X165.363 Y140.793 E6.777
G1 X165.224 Y140.796 E6.78163
G1 X140.889 Y140.797 E7.59101
G1 X140.34 Y140.757 E7.60932
G1 X139.802 Y140.638 E7.62765
G1 X139.286 Y140.443 E7.64599
G1 X138.805 Y140.175 E7.66431
G1 X138.367 Y139.84 E7.68265
G1 X137.983 Y139.445 E7.70097
G1 X137.659 Y138.999 E7.7193
G1 X137.47 Y138.638 E7.73286
G1 X137.158 Y138.942 E7.74735
G1 X136.712 Y139.266 E7.76568
G1 X136.224 Y139.521 E7.78399
G1 X135.704 Y139.704 E7.80233
G1 X135.163 Y139.809 E7.82066
G1 X134.71 Y139.836 E7.83575
G1 X110.333 Y139.835 E8.64654
G1 X109.941 Y139.821 E8.65958
G1 X109.551 Y139.789 E8.6726
G1 X109.177 Y139.742 E8.68513
G1 X108.809 Y139.679 E8.69755
G1 X108.422 Y139.596 E8.71072
G1 X108.121 Y139.519 E8.72105
G1 X107.964 Y139.474 E8.72648
G1 X107.717 Y139.397 E8.73509
G1 X107.533 Y139.334 E8.74156
G1 X107.289 Y139.244 E8.75021
G1 X106.912 Y139.089 E8.76376
G1 X106.574 Y138.931 E8.77617
G1 X106.229 Y138.751 E8.78912
G1 X105.947 Y138.589 E8.79993
G1 X105.648 Y138.402 E8.81166
G1 X105.324 Y138.18 E8.82472
G1 X105.026 Y137.956 E8.83712
G1 X104.789 Y137.763 E8.84729
G1 X104.5 Y137.509 E8.86009
G1 X104.35 Y137.366 E8.86698
G1 X104.106 Y137.121 E8.87848
G1 X103.814 Y136.802 E8.89286
G1 X103.676 Y136.638 E8.89999
G1 X103.461 Y136.367 E8.9115
G1 X103.307 Y136.158 E8.92013
G1 X103.111 Y135.873 E8.93164
G1 X102.882 Y135.508 E8.94597
G1 X82.626 Y100.422 E10.29345
G1 X82.534 Y100.252 E10.29988
G1 X82.375 Y99.941 E10.3115
G1 X82.263 Y99.703 E10.32024
G1 X82.126 Y99.382 E10.33185
G1 X81.968 Y98.96 E10.34684
G1 X81.866 Y98.641 E10.35798
G1 X81.776 Y98.324 E10.36894
G1 X81.684 Y97.935 E10.38223
G1 X81.61 Y97.542 E10.39554
G1 X81.566 Y97.247 E10.40546
G1 X81.524 Y96.873 E10.41797
G1 X81.499 Y96.485 E10.4309
G1 X81.493 Y96.318 E10.43646
G1 X81.49 Y96.057 E10.44514
G1 X81.493 Y95.854 E10.4519
G1 X81.504 Y95.591 E10.46065
G1 X81.537 Y95.184 E10.47423
G1 X81.587 Y94.797 E10.48721
G1 X81.65 Y94.426 E10.49973
G1 X81.695 Y94.213 E10.50697
G1 X81.776 Y93.876 E10.5185
G1 X81.894 Y93.462 E10.53281
G1 X81.964 Y93.252 E10.54018
G1 X82.084 Y92.923 E10.55182
G1 X82.227 Y92.574 E10.56437
G1 X82.371 Y92.261 E10.57583
G1 X82.552 Y91.907 E10.58905
G1 X82.719 Y91.612 E10.60033
G1 X82.897 Y91.325 E10.61156
G1 X83.024 Y91.134 E10.61919
G1 X83.227 Y90.849 E10.63083
G1 X83.51 Y90.489 E10.64606
G1 X83.635 Y90.343 E10.65245
G1 X83.868 Y90.084 E10.66404
G1 X84.178 Y89.768 E10.67876
G0 F6000 X84.459 Y90.052
G1 F1200 X84.682 Y89.845 E10.68888
G1 X84.943 Y89.621 E10.70032
G1 X85.188 Y89.425 E10.71076
G1 X85.467 Y89.221 E10.72225
G1 X85.776 Y89.015 E10.7346
G1 X86.05 Y88.847 E10.74529
G1 X99.219 Y81.245 E11.25104
G1 X99.454 Y81.122 E11.25986
G1 X99.793 Y80.97 E11.27221
G1 X99.985 Y80.895 E11.27907
G1 X100.365 Y80.772 E11.29235
G1 X100.603 Y80.71 E11.30053
G1 X101.046 Y80.625 E11.31554
G1 X101.307 Y80.593 E11.32428
G1 X101.783 Y80.569 E11.34014
G1 X102.112 Y80.575 E11.35108
G1 X102.646 Y80.627 E11.36892
G1 X102.921 Y80.676 E11.37822
G1 X103.324 Y80.773 E11.392
G1 X103.542 Y80.84 E11.39959
G1 X103.997 Y81.017 E11.41583
G1 X104.295 Y81.158 E11.42679
G1 X104.735 Y81.408 E11.44362
G1 X104.966 Y81.563 E11.45287
G1 X105.334 Y81.848 E11.46836
G1 X105.518 Y82.012 E11.47655
G1 X105.784 Y82.276 E11.48902
G1 X105.936 Y82.445 E11.49658
G1 X106.207 Y82.788 E11.51112
G1 X106.356 Y83.004 E11.51985
G1 X106.586 Y83.39 E11.53479
G1 X106.712 Y83.637 E11.54401
G1 X106.893 Y84.061 E11.55935
G1 X106.98 Y84.31 E11.56812
G1 X107.093 Y84.713 E11.58204
G1 X107.144 Y84.949 E11.59007
G1 X107.214 Y85.453 E11.60699
G1 X107.236 Y85.802 E11.61863
G1 X107.243 Y86.016 E11.62575
G1 X107.244 Y97.636 E12.01223
G1 X134.71 Y97.637 E12.92575
G1 X135.23 Y97.677 E12.9431
G1 X135.737 Y97.796 E12.96042
G1 X136.22 Y97.991 E12.97774
G1 X136.668 Y98.258 E12.99509
G1 X137.07 Y98.589 E13.01241
G1 X137.416 Y98.979 E13.02975
G1 X137.699 Y99.417 E13.0471
G1 X137.912 Y99.893 E13.06444
G1 X138.001 Y100.22 E13.07571
G1 X138.109 Y100.039 E13.08272
G1 X138.441 Y99.637 E13.10006
G1 X138.831 Y99.291 E13.1174
G1 X139.269 Y99.008 E13.13475
G1 X139.744 Y98.795 E13.15206
G1 X140.247 Y98.658 E13.1694
G1 X140.889 Y98.597 E13.19085
G1 X168.356 Y98.596 E14.10441
G1 X168.359 Y86.804 E14.49661
G1 X168.383 Y86.4 E14.51007
G1 X168.41 Y86.175 E14.51761
G1 X168.488 Y85.755 E14.53182
G1 X168.556 Y85.483 E14.54114
G1 X168.69 Y85.062 E14.55584
G1 X168.779 Y84.836 E14.56391
G1 X168.95 Y84.468 E14.57741
G1 X169.067 Y84.251 E14.58561
G1 X169.312 Y83.862 E14.6009
G1 X169.476 Y83.637 E14.61016
G1 X169.739 Y83.32 E14.62386
G1 X169.894 Y83.154 E14.63142
G1 X170.194 Y82.869 E14.64518
G1 X170.368 Y82.723 E14.65273
G1 X170.677 Y82.493 E14.66554
G1 X170.881 Y82.358 E14.67368
G1 X171.242 Y82.149 E14.68755
G1 X171.459 Y82.041 E14.69562
G1 X171.863 Y81.872 E14.71018
G1 X172.129 Y81.78 E14.71954
G1 X172.592 Y81.655 E14.73549
G1 X172.865 Y81.602 E14.74474
G1 X173.329 Y81.545 E14.76029
G1 X173.606 Y81.53 E14.76952
G1 X174.064 Y81.536 E14.78475
G1 X174.324 Y81.557 E14.79343
G1 X174.789 Y81.627 E14.80907
G1 X175.063 Y81.688 E14.81841
G1 X175.508 Y81.82 E14.83384
G1 X175.753 Y81.911 E14.84254
G1 X176.131 Y82.078 E14.85628
G1 X176.365 Y82.199 E14.86504
G1 X176.503 Y82.275 E14.87028
G1 X189.427 Y89.737 E15.36664
G1 X189.652 Y89.87 E15.37533
G1 X189.799 Y89.962 E15.3811
G1 X190.089 Y90.154 E15.39267
G1 X190.277 Y90.288 E15.40035
G1 X190.553 Y90.499 E15.4119
G1 X190.866 Y90.76 E15.42546
G1 X191.139 Y91.011 E15.43779
G1 X191.409 Y91.284 E15.45056
G1 X191.61 Y91.505 E15.4605
G1 X191.842 Y91.78 E15.47247
G1 X191.951 Y91.919 E15.47834
G1 X192.159 Y92.199 E15.48994
G1 X192.361 Y92.495 E15.50186
G1 X192.549 Y92.801 E15.51381
G1 X192.64 Y92.961 E15.51993
G1 X192.804 Y93.269 E15.53153
G1 X192.909 Y93.484 E15.53949
G1 X193.051 Y93.803 E15.55111
G1 X193.177 Y94.116 E15.56233
G1 X193.3 Y94.472 E15.57486
G1 X193.402 Y94.807 E15.5865
G1 X193.494 Y95.171 E15.59899
G1 X193.528 Y95.325 E15.60424
G1 X193.578 Y95.581 E15.61291
G1 X193.638 Y95.969 E15.62597
G1 X193.677 Y96.321 E15.63775
G1 X193.701 Y96.699 E15.65035
G1 X193.706 Y96.846 E15.65524
G1 X193.709 Y97.105 E15.66385
G1 X193.706 Y97.286 E15.66987
G1 X193.695 Y97.549 E15.67863
G1 X193.664 Y97.936 E15.69154
G1 X193.646 Y98.091 E15.69673
G1 X193.61 Y98.35 E15.70543
G1 X193.582 Y98.516 E15.71103
G1 X193.533 Y98.774 E15.71976
G1 X193.435 Y99.189 E15.73395
G1 X193.347 Y99.5 E15.7447
G1 X193.224 Y99.872 E15.75773
G1 X193.102 Y100.196 E15.76924
G1 X192.954 Y100.54 E15.7817
G1 X192.789 Y100.88 E15.79427
G1 X192.623 Y101.189 E15.80593
G1 X172.345 Y136.309 E17.15476
G1 X172.177 Y136.58 E17.16536
G1 X171.973 Y136.878 E17.17738
G1 X171.765 Y137.157 E17.18895
G1 X171.558 Y137.413 E17.1999
G1 X171.328 Y137.674 E17.21147
G1 X171.204 Y137.805 E17.21747
G1 X170.957 Y138.053 E17.22911
G1 X170.692 Y138.298 E17.24112
G1 X170.417 Y138.53 E17.25308
G1 X170.278 Y138.639 E17.25896
G1 X169.998 Y138.847 E17.27056
G1 X169.649 Y139.083 E17.28457
G1 X169.485 Y139.183 E17.29096
G1 X169.183 Y139.357 E17.30255
G1 X168.881 Y139.516 E17.3139
G1 X168.713 Y139.597 E17.32011
G1 X168.394 Y139.739 E17.33172
G1 X168.014 Y139.889 E17.34531
G1 X167.722 Y139.99 E17.35559
G1 X167.385 Y140.091 E17.36729
G1 X167.204 Y140.138 E17.37351
G1 X166.865 Y140.217 E17.38508
G1 X166.436 Y140.296 E17.39959
G1 X166.095 Y140.342 E17.41104
G1 X165.724 Y140.376 E17.42343
G1 X165.348 Y140.394 E17.43595
G1 X165.224 Y140.396 E17.44007
G1 X140.889 Y140.397 E18.24946
G1 X140.37 Y140.357 E18.26677
G1 X139.862 Y140.238 E18.28413
G1 X139.379 Y140.043 E18.30145
G1 X138.931 Y139.777 E18.31878
G1 X138.529 Y139.445 E18.33612
G1 X138.183 Y139.055 E18.35346
G1 X137.9 Y138.618 E18.37078
G1 X137.687 Y138.142 E18.38812
G1 X137.597 Y137.813 E18.39947
G1 X137.49 Y137.994 E18.40646
G1 X137.158 Y138.396 E18.4238
G1 X136.768 Y138.742 E18.44114
G1 X136.33 Y139.025 E18.45848
G1 X135.855 Y139.238 E18.4758
G1 X135.352 Y139.375 E18.49314
G1 X134.71 Y139.436 E18.51459
G1 X110.333 Y139.435 E19.32537
G1 X109.96 Y139.421 E19.33778
G1 X109.588 Y139.391 E19.3502
G1 X109.23 Y139.345 E19.3622
G1 X108.879 Y139.286 E19.37404
G1 X108.51 Y139.206 E19.3866
G1 X108.224 Y139.133 E19.39642
G1 X108.083 Y139.092 E19.4013
G1 X107.836 Y139.015 E19.40991
G1 X107.671 Y138.959 E19.4157
G1 X107.427 Y138.869 E19.42435
G1 X107.069 Y138.721 E19.43724
G1 X106.746 Y138.57 E19.44909
G1 X106.417 Y138.398 E19.46144
G1 X106.149 Y138.244 E19.47172
G1 X105.863 Y138.065 E19.48294
G1 X105.554 Y137.852 E19.49543
G1 X105.269 Y137.638 E19.50728
G1 X105.043 Y137.454 E19.51697
G1 X104.768 Y137.211 E19.52918
G1 X104.633 Y137.083 E19.53537
G1 X104.389 Y136.838 E19.54687
G1 X104.113 Y136.536 E19.56048
G1 X103.989 Y136.389 E19.56687
G1 X103.774 Y136.118 E19.57838
G1 X103.637 Y135.932 E19.58606
G1 X103.441 Y135.647 E19.59756
G1 X103.224 Y135.3 E19.61118
G1 X82.972 Y100.222 E20.95836
G1 X82.89 Y100.07 E20.9641
G1 X82.731 Y99.759 E20.97572
G1 X82.631 Y99.546 E20.98355
G1 X82.494 Y99.225 E20.99516
G1 X82.345 Y98.826 E21.00932
G1 X82.248 Y98.522 E21.01994
G1 X82.162 Y98.217 E21.03048
G1 X82.074 Y97.847 E21.04313
G1 X82.004 Y97.473 E21.05578
G1 X81.962 Y97.191 E21.06526
G1 X81.922 Y96.833 E21.07724
G1 X81.898 Y96.463 E21.08958
G1 X81.893 Y96.313 E21.09457
G1 X81.89 Y96.052 E21.10325
G1 X81.893 Y95.871 E21.10927
G1 X81.904 Y95.608 E21.11803
G1 X81.935 Y95.221 E21.13094
G1 X81.983 Y94.851 E21.14335
G1 X82.044 Y94.497 E21.1553
G1 X82.084 Y94.306 E21.16179
G1 X82.165 Y93.969 E21.17331
G1 X82.277 Y93.577 E21.18687
G1 X82.34 Y93.389 E21.19347
G1 X82.46 Y93.06 E21.20512
G1 X82.595 Y92.731 E21.21694
G1 X82.733 Y92.43 E21.22796
G1 X82.906 Y92.093 E21.24056
G1 X83.065 Y91.813 E21.25127
G1 X83.236 Y91.537 E21.26207
G1 X83.35 Y91.366 E21.2689
G1 X83.553 Y91.081 E21.28054
G1 X83.82 Y90.741 E21.29492
G1 X83.932 Y90.61 E21.30065
G1 X84.165 Y90.351 E21.31224
G1 X84.459 Y90.052 E21.32618
G0 F6000 X84.74 Y90.337
G1 F1200 X84.952 Y90.14 E21.33581
G1 X85.202 Y89.926 E21.34675
G1 X85.434 Y89.741 E21.35662
G1 X85.702 Y89.545 E21.36767
G1 X85.995 Y89.349 E21.37939
G1 X86.255 Y89.191 E21.38951
G1 X99.419 Y81.592 E21.89506
G1 X99.737 Y81.43 E21.90693
G1 X100.13 Y81.268 E21.92107
G1 X100.466 Y81.159 E21.93282
G1 X100.704 Y81.097 E21.941
G1 X101.095 Y81.022 E21.95424
G1 X101.356 Y80.99 E21.96299
G1 X101.776 Y80.968 E21.97697
G1 X102.105 Y80.974 E21.98792
G1 X102.576 Y81.021 E22.00366
G1 X102.851 Y81.07 E22.01295
G1 X103.206 Y81.155 E22.02509
G1 X103.424 Y81.222 E22.03268
G1 X103.826 Y81.378 E22.04702
G1 X104.124 Y81.519 E22.05799
G1 X104.513 Y81.74 E22.07287
